X:1
T:[ID 4-30ra]
T:[ID 4-30ra]
T:Bezeichnung standardisiert: Schwabisch Schwabisch
T:Urheber unbekannt Erstbeleg: 1767 (Datum in der schriftlichen Quelle) Datum in der hier transkribierten schriftlichen Quelle: 1796
C:Urheber unbekannt
C:Erstbeleg: 1767 (Datum in der schriftlichen Quelle)
C:Datum in der hier transkribierten schriftlichen Quelle: 1796
L:1/8
M:3/8
K:F
V:1 treble 
V:1
 c2 B | A/B/cF | G/A/BE | F/E/F/G/A/B/ | c2 B | A/B/cF | G/A/B/G/F/E/ | F2 F :: %8
"^[Notat bricht ab]" x3 | %9

